X:1
T: Lady Alexander Russell
C:William Marshall
R:Reel
Q: 232
K:F
M:4/4
L:1/8
|:A|F2 fc Ac cf|df cf gf ga|F2 fc Ac cf|df cA F2 FA|
F2 fc Ac cf|df cf gf ga|F2 fc Ac cf|df cA F2 Fa|
bg af gf df|cf Af cf Aa|bg af gf df|cA fA F2 Fa|
bg af gf df|cf Af cf Aa|db ca Bg Af|cA fA F2 F:|
